packages/vue-material-icons/lib/image/bedtime_off/materialiconstwotone/20px.svg

<svg xmlns="http://www.w3.org/2000/svg" enable-background="new 0 0 20 20" height="20" viewBox="0 0 20 20" width="20"><g><rect fill="none" height="20" width="20"/></g><g><g><g opacity=".3"><path d="M4.48 6.6c-.61.99-.98 2.15-.98 3.4 0 3.59 2.92 6.5 6.5 6.5 1.22 0 2.39-.36 3.39-.98L4.48 6.6z"/></g><g opacity=".3"><path d="m6.6 4.48 1.1 1.1c.03-.58.11-1.17.25-1.75-.48.16-.92.39-1.35.65z"/></g><path d="M7.95 3.83c-.14.58-.22 1.17-.24 1.76L9.3 7.18c-.26-1.7.01-3.5.98-5.18H10c-1.68 0-3.23.51-4.5 1.38l1.1 1.1c.43-.26.87-.49 1.35-.65zm-5.02-.9L1.87 3.99 3.38 5.5C2.51 6.79 2 8.34 2 10c0 4.42 3.58 8 8 8 1.67 0 3.2-.52 4.48-1.39l1.53 1.53 1.06-1.06L2.93 2.93zM10 16.5c-3.59 0-6.5-2.92-6.5-6.5 0-1.25.37-2.4.98-3.39l8.92 8.92c-1.01.61-2.18.97-3.4.97z"/></g></g></svg>

<svg xmlns="http://www.w3.org/2000/svg" enable-background="new 0 0 20 20" height="20" viewBox="0 0 20 20" width="20"><g><rect fill="none" height="20" width="20"/></g><g><g><g opacity=".3"><path d="M4.48,6.6C3.87,7.59,3.5,8.75,3.5,10c0,3.59,2.92,6.5,6.5,6.5c1.22,0,2.39-0.36,3.39-0.98L4.48,6.6z"/></g><g opacity=".3"><path d="M6.6,4.48l1.1,1.1C7.73,5,7.81,4.41,7.95,3.83C7.47,3.99,7.03,4.22,6.6,4.48z"/></g><path d="M7.95,3.83C7.81,4.41,7.73,5,7.71,5.59l1.59,1.59C9.04,5.48,9.31,3.68,10.28,2C10.18,2,10.09,2,10,2 C8.32,2,6.77,2.51,5.5,3.38l1.1,1.1C7.03,4.22,7.47,3.99,7.95,3.83z"/><path d="M2.93,2.93L1.87,3.99L3.38,5.5C2.51,6.79,2,8.34,2,10c0,4.42,3.58,8,8,8c1.67,0,3.2-0.52,4.48-1.39l1.53,1.53l1.06-1.06 L2.93,2.93z M10,16.5c-3.59,0-6.5-2.92-6.5-6.5c0-1.25,0.37-2.4,0.98-3.39l8.92,8.92C12.39,16.14,11.22,16.5,10,16.5z"/></g></g></svg>
